packages/ffe-icons/icons/filled/md/sensor_door.svg

<svg xmlns="http://www.w3.org/2000/svg" height="24" viewBox="0 -960 960 960" width="24"><path d="M252.309-100.001q-29.827 0-51.067-21.241-21.241-21.24-21.241-51.067v-615.382q0-29.827 21.241-51.067 21.24-21.241 51.067-21.241h455.382q29.827 0 51.067 21.241 21.241 21.24 21.241 51.067v615.382q0 29.827-21.241 51.067-21.24 21.241-51.067 21.241H252.309Zm367.646-330q20.814 0 35.429-14.57 14.615-14.57 14.615-35.384t-14.57-35.429q-14.57-14.615-35.384-14.615t-35.429 14.57q-14.615 14.57-14.615 35.384t14.57 35.429q14.57 14.615 35.384 14.615Z"/></svg>

<svg xmlns="http://www.w3.org/2000/svg" height="24" viewBox="0 -960 960 960" width="24"><path d="M252.31-100q-29.83 0-51.07-21.24Q180-142.48 180-172.31v-615.38q0-29.83 21.24-51.07Q222.48-860 252.31-860h455.38q29.83 0 51.07 21.24Q780-817.52 780-787.69v615.38q0 29.83-21.24 51.07Q737.52-100 707.69-100H252.31Zm367.64-330q20.82 0 35.43-14.57Q670-459.14 670-479.95q0-20.82-14.57-35.43Q640.86-530 620.05-530q-20.82 0-35.43 14.57Q570-500.86 570-480.05q0 20.82 14.57 35.43Q599.14-430 619.95-430Z"/></svg>
